X: 1
T:An Rinncé Mor (The Rakes of Mallow)
M:C
L:1/8
Q:80
C:Arr. By Kent Hiestand
S:Reel
K:HP
|: {g}A2{d}c2{g}A2{d}c2|
{g}A2{d}c2{g}dcBA|
{g}G2{d}B2{g}G2{d}B2|  !
{g}G2{d}B2{g}edcB|
{g}A2{d}c2{g}A2{d}c2|
{g}A2{d}c2{g}e3c|  !
{g}dcBAGABd|
{gcd}c2{e}A2{GAG}A4:| |:
((3Ace)|  !
{ag}a2gfe2d2|
c2d2{gef}e4|
{ag}a2gfe2d2|  !
c2d2{gef}B3e|
{ag}a2gfe2d2|
c2d2{gef}e3c|  !
{g}dcBAGABd|
{gcd}c2{e}A2{GAG}A2:|
